packages/core/src/svgs/networks/mono/conflux.svg

<svg width="24" height="24" viewBox="0 0 24 24" fill="none" xmlns="http://www.w3.org/2000/svg">
<path d="M16.225 13.9184L11.9951 18.185L9.64159 15.81L13.8715 11.5434L11.9896 9.64502L5.8587 15.8309L11.9728 22L18.1045 15.8142L16.225 13.9184Z" fill="white"/>
<path d="M20 10.0609L12.0112 2L4 10.0834L4.0255 13.8609L11.9769 5.83834L19.9865 13.92L20 10.0609Z" fill="white"/>
</svg>

<svg xmlns="http://www.w3.org/2000/svg" width="24" height="24" fill="none" viewBox="0 0 24 24">
    <path fill="#fff" d="m16.225 13.918-4.23 4.267-2.353-2.375 4.23-4.267-1.882-1.898-6.131 6.186L11.973 22l6.132-6.186z"/>
    <path fill="#fff" d="M20 10.06 12.011 2 4 10.083l.026 3.778 7.95-8.023 8.01 8.082z"/>
</svg>
